resources/svg/lastfm.svg

<svg xmlns="http://www.w3.org/2000/svg" viewBox="0 0 24 24" fill="currentColor"><path fill="currentColor" d="M20.2973911,10.9243705 C20.0872375,10.8554597 19.8839266,10.7919248 19.688435,10.7298553 C18.1943918,10.2601877 17.2936635,9.97672434 17.2936635,8.81403954 C17.2936635,7.87079223 18.0208923,7.18706171 19.0242528,7.18706171 C19.7925339,7.18706171 20.3653248,7.50571246 20.8789776,8.22463246 C20.9268734,8.29158903 21.0172889,8.31553554 21.0920633,8.27594857 L22.5993031,7.5066896 C22.6403568,7.48665166 22.6706571,7.44950857 22.6833641,7.40552274 C22.6965593,7.3615376 22.6921611,7.31461966 22.6691911,7.27454377 C21.8618119,5.83963589 20.6971701,5.14222057 19.1088027,5.14222057 C16.6920391,5.14222057 15.1290843,6.60449737 15.1290843,8.86731063 C15.1290843,11.1809525 16.6402347,12.117357 19.4274535,13.0347001 C21.0427015,13.57328 21.7567344,13.8586969 21.7567344,15.0076983 C21.7567344,16.2994078 20.5920946,17.2279931 19.001771,17.1737435 C17.336184,17.1175403 16.8313269,16.2344075 16.1964679,14.7882587 C15.1227312,12.3387509 13.9009097,9.47919886 13.8891806,9.45134171 C12.6624706,6.6216032 10.2315353,5 7.21852183,5 C3.23831589,5 0,8.23880549 0,12.2204782 C0,16.2001959 3.23831589,19.4390007 7.21852183,19.4390007 C9.38945417,19.4390007 11.4245211,18.4766933 12.8007813,16.7979111 C12.8408585,16.7490375 12.8506313,16.6835477 12.8257063,16.6248999 L11.9152059,14.5248327 C11.8893017,14.4666745 11.8311429,14.4275771 11.7671198,14.4246437 C11.701141,14.4217088 11.642005,14.4578782 11.6126825,14.5145696 C10.7534976,16.1562094 9.06982697,17.1756971 7.21754537,17.1756971 C4.48603954,17.1756971 2.26428,14.953448 2.26428,12.2204775 C2.26428,9.48750629 4.48652846,7.26525783 7.2180336,7.26525783 C9.20667086,7.26525783 11.0286514,8.44553669 11.7524578,10.206427 L14.0030537,15.3400325 L14.2625685,15.9167326 C15.2801019,18.2870679 16.7751237,19.3490754 19.1166226,19.3578725 C21.9009093,19.3578725 24,17.5129205 24,15.0673225 C24,12.6099954 22.6418215,11.6892299 20.2973911,10.9243698 L20.2973911,10.9243705 Z"/></svg>

<svg viewBox="0 0 24 24"><path fill="currentColor" d="M20.297 10.924c-.21-.069-.413-.132-.609-.194c-1.494-.47-2.394-.753-2.394-1.916c0-.943.727-1.627 1.73-1.627c.769 0 1.341.319 1.855 1.038c.048.067.138.09.213.05l1.507-.768a.162.162 0 0 0 .084-.101a.166.166 0 0 0-.014-.131c-.807-1.435-1.972-2.133-3.56-2.133c-2.417 0-3.98 1.462-3.98 3.725c0 2.314 1.511 3.25 4.298 4.168c1.616.538 2.33.824 2.33 1.973c0 1.291-1.165 2.22-2.755 2.166c-1.666-.056-2.17-.94-2.806-2.386a720.097 720.097 0 0 1-2.307-5.337C12.662 6.621 10.232 5 7.22 5C3.239 5 0 8.239 0 12.22c0 3.98 3.238 7.219 7.219 7.219c2.17 0 4.206-.962 5.582-2.641a.167.167 0 0 0 .025-.173l-.91-2.1a.171.171 0 0 0-.149-.1a.165.165 0 0 0-.154.09a4.946 4.946 0 0 1-4.395 2.66a4.96 4.96 0 0 1-4.954-4.955a4.96 4.96 0 0 1 4.954-4.955c1.989 0 3.81 1.18 4.534 2.941l2.251 5.134l.26.577c1.017 2.37 2.512 3.432 4.854 3.44c2.784 0 4.883-1.844 4.883-4.29c0-2.457-1.358-3.378-3.703-4.143z"/></svg>
